lib/flags/s/CHL.svg

<svg xmlns="http://www.w3.org/2000/svg" fill="none" viewBox="0 0 16 12"><mask id="CHL_svg__a" width="16" height="12" x="0" y="0" mask-type="alpha" maskUnits="userSpaceOnUse"><path fill="#fff" d="M0 0H16V12H0z"/></mask><g fill-rule="evenodd" clip-rule="evenodd" mask="url(#CHL_svg__a)"><path fill="#3D58DB" d="M0 0H7V7H0V0Z"/><path fill="#F7FCFF" d="M7 -1H16V7H7V-1Z"/><path fill="#E31D1C" d="M0 7H16V12H0V7Z"/><path fill="#F7FCFF" d="M3.5072 4.89166L1.60536 6.0274L2.54395 4.09497L0.881897 2.83987L2.80064 2.81933L3.52448 1.10571L3.99055 2.81933L5.80666 2.82789L4.42535 4.05547L5.14264 6.0274L3.5072 4.89166Z"/></g></svg>

<svg xmlns="http://www.w3.org/2000/svg" fill="none" viewBox="0 0 16 12"><mask id="CHL_svg__a" width="16" height="12" x="0" y="0" maskUnits="userSpaceOnUse"><path fill="#fff" d="M0 0h16v12H0z"/></mask><g fill-rule="evenodd" clip-rule="evenodd" mask="url(#CHL_svg__a)"><path fill="#3D58DB" d="M0 0h7v7H0V0z"/><path fill="#F7FCFF" d="M7-1h9v8H7v-8z"/><path fill="#E31D1C" d="M0 7h16v5H0V7z"/><path fill="#F7FCFF" d="M3.507 4.892L1.605 6.027l.939-1.932L.882 2.84 2.8 2.82l.723-1.714.467 1.713 1.816.009-1.382 1.227.718 1.972-1.636-1.135z"/></g></svg>
